austria/municipalities/70822.svg

<?xml version="1.0" encoding="UTF-8"?>
<!DOCTYPE svg PUBLIC "-//W3C//DTD SVG 1.1//EN" "http://www.w3.org/Graphics/SVG/1.1/DTD/svg11.dtd">
<svg xmlns="http://www.w3.org/2000/svg" version="1.1" width="166px" height="192px" style="shape-rendering:geometricPrecision; text-rendering:geometricPrecision; image-rendering:optimizeQuality; fill-rule:evenodd; clip-rule:evenodd" xmlns:xlink="http://www.w3.org/1999/xlink">
<g><path style="opacity:1" fill="#140d0b" d="M -0.5,-0.5 C 54.8333,-0.5 110.167,-0.5 165.5,-0.5C 165.5,39.1667 165.5,78.8333 165.5,118.5C 157.367,159.633 132.7,183.966 91.5,191.5C 84.8333,191.5 78.1667,191.5 71.5,191.5C 30.4766,182.81 6.47657,157.81 -0.5,116.5C -0.5,77.5 -0.5,38.5 -0.5,-0.5 Z"/></g>
<g><path style="opacity:1" fill="#fcfcfc" d="M 82.5,80.5 C 81.8826,80.3893 81.3826,80.056 81,79.5C 80,80.8333 79,82.1667 78,83.5C 77.3996,79.9599 75.5663,77.2932 72.5,75.5C 71.5726,77.1128 70.7393,78.7795 70,80.5C 68.1136,77.758 65.6136,76.0913 62.5,75.5C 62.6046,80.154 61.2713,80.654 58.5,77C 57.0563,76.2195 55.723,76.3861 54.5,77.5C 55.9849,81.3603 54.6515,83.8603 50.5,85C 43.5644,87.2545 38.8977,85.0878 36.5,78.5C 36.8333,78.1667 37.1667,77.8333 37.5,77.5C 51.3081,80.5253 56.4748,75.192 53,61.5C 51.8333,60.3333 50.6667,59.1667 49.5,58C 46.1667,57.6667 42.8333,57.3333 39.5,57C 37.7177,49.5507 33.051,45.2174 25.5,44C 26.7649,42.6626 27.2649,41.1626 27,39.5C 23.0324,42.9018 18.5324,45.4018 13.5,47C 18.2144,49.0512 22.3811,51.8845 26,55.5C 26.7203,53.8876 26.5536,52.3876 25.5,51C 28.2981,50.4392 30.1314,51.6059 31,54.5C 31.8275,58.8713 31.6609,63.2047 30.5,67.5C 23.1178,74.6379 20.6178,83.3045 23,93.5C 26.8472,102.695 33.6805,108.528 43.5,111C 40.8987,111.92 38.2321,112.587 35.5,113C 37.5966,120.751 39.0966,128.584 40,136.5C 39.196,137.804 38.0293,138.471 36.5,138.5C 32.0631,137.696 28.3964,139.196 25.5,143C 26.8989,143.595 28.2322,143.428 29.5,142.5C 32.0287,145.27 34.362,145.104 36.5,142C 40.2103,140.776 42.8769,141.942 44.5,145.5C 42.8574,149.371 44.1908,151.538 48.5,152C 49.1258,152.75 49.6258,153.584 50,154.5C 49.508,150.191 49.1746,145.857 49,141.5C 52.6342,140.427 56.1342,139.76 59.5,139.5C 56.6525,136.196 52.9859,134.862 48.5,135.5C 48.335,132.15 48.5017,128.817 49,125.5C 56.1065,129.209 61.4399,127.542 65,120.5C 65.1998,123.284 64.3665,125.784 62.5,128C 66.1291,137.131 72.1291,144.298 80.5,149.5C 82.2141,148.391 82.8808,149.058 82.5,151.5C 82.5,163.5 82.5,175.5 82.5,187.5C 49.009,186.169 24.8423,170.502 10,140.5C 6.89814,132.426 4.89814,124.093 4,115.5C 3.50001,78.1682 3.33335,40.8348 3.5,3.5C 29.8333,3.5 56.1667,3.5 82.5,3.5C 82.5,29.1667 82.5,54.8333 82.5,80.5 Z"/></g>
<g><path style="opacity:1" fill="#d63023" d="M 83.5,152.5 C 88.2822,155.399 92.9489,158.566 97.5,162C 93.8903,163.526 90.7236,165.693 88,168.5C 87.3333,169.833 87.3333,171.167 88,172.5C 92.3538,171.096 96.5204,169.43 100.5,167.5C 99.9164,170.67 99.2497,173.837 98.5,177C 98.8333,177.833 99.1667,178.667 99.5,179.5C 100.262,178.372 100.929,177.205 101.5,176C 106.461,175.096 107.461,172.763 104.5,169C 105.448,168.517 106.448,168.351 107.5,168.5C 107.33,169.822 107.663,170.989 108.5,172C 111.271,171.896 113.937,171.896 116.5,172C 114.465,168.632 111.799,165.965 108.5,164C 109.99,162.228 111.657,162.061 113.5,163.5C 115.67,161.914 118.004,160.58 120.5,159.5C 118.58,158.024 116.413,157.024 114,156.5C 111.67,158.043 109.17,158.543 106.5,158C 104.539,155.037 102.206,152.371 99.5,150C 106.331,149.612 112.498,147.446 118,143.5C 118.395,145.179 118.228,146.845 117.5,148.5C 119.457,150.491 121.457,152.491 123.5,154.5C 123.483,150.217 123.816,145.883 124.5,141.5C 127.367,142.213 129.867,143.546 132,145.5C 133.285,145.05 134.452,144.383 135.5,143.5C 136.5,144.167 137.5,144.833 138.5,145.5C 138.833,145.167 139.167,144.833 139.5,144.5C 137.204,140.041 133.537,137.875 128.5,138C 127.643,137.311 126.977,136.478 126.5,135.5C 128.22,134.066 130.22,133.233 132.5,133C 133.167,132 133.833,131 134.5,130C 136.085,129.915 137.418,129.749 138.5,129.5C 137.562,128.447 136.395,127.78 135,127.5C 133.31,128.149 131.477,128.149 129.5,127.5C 132.327,117.744 131.993,108.078 128.5,98.5C 133.409,94.5144 135.742,89.3478 135.5,83C 135.202,77.6427 134.036,72.4761 132,67.5C 131.78,60.8219 131.78,54.1552 132,47.5C 131.035,45.7397 129.868,45.4063 128.5,46.5C 127.215,49.0205 126.548,51.6872 126.5,54.5C 125.186,49.6523 125.186,44.6523 126.5,39.5C 128.534,38.4261 128.867,37.0927 127.5,35.5C 126.835,31.8485 126.501,28.0152 126.5,24C 126.624,19.3834 127.291,14.8834 128.5,10.5C 127.489,8.65293 126.489,6.8196 125.5,5C 124.167,4.33333 122.833,4.33333 121.5,5C 120.541,6.7073 119.875,8.54064 119.5,10.5C 120.804,19.8396 120.804,29.1729 119.5,38.5C 121.452,51.2523 122.118,64.2523 121.5,77.5C 119.672,74.865 118.505,71.865 118,68.5C 116.274,60.2518 115.441,51.9185 115.5,43.5C 113.143,43.3367 110.81,43.5034 108.5,44C 104.664,46.5413 104.497,49.3746 108,52.5C 108.499,56.4862 108.666,60.4862 108.5,64.5C 105.048,64.4483 102.881,66.115 102,69.5C 101.325,75.9152 101.825,82.2486 103.5,88.5C 102.637,91.2325 101.471,93.8992 100,96.5C 99.6667,100.5 99.3333,104.5 99,108.5C 97.3221,109.466 96.6554,110.799 97,112.5C 101.772,111.287 105.439,108.621 108,104.5C 108.373,109.56 107.54,114.393 105.5,119C 101.726,120.183 98.5594,119.349 96,116.5C 93.4783,107.969 91.4783,99.3022 90,90.5C 89.2515,88.6675 88.2515,87.0009 87,85.5C 86.3333,86.1667 85.6667,86.8333 85,87.5C 84.3923,85.8455 83.8923,84.1789 83.5,82.5C 83.5,56.1667 83.5,29.8333 83.5,3.5C 109.5,3.5 135.5,3.5 161.5,3.5C 161.667,41.5015 161.5,79.5015 161,117.5C 154.754,156.413 132.254,179.58 93.5,187C 90.1832,187.498 86.8499,187.665 83.5,187.5C 83.5,175.833 83.5,164.167 83.5,152.5 Z"/></g>
<g><path style="opacity:1" fill="#1f1710" d="M 127.5,35.5 C 124.695,36.0652 122.028,37.0652 119.5,38.5C 120.804,29.1729 120.804,19.8396 119.5,10.5C 119.875,8.54064 120.541,6.7073 121.5,5C 122.833,4.33333 124.167,4.33333 125.5,5C 126.489,6.8196 127.489,8.65293 128.5,10.5C 127.291,14.8834 126.624,19.3834 126.5,24C 126.501,28.0152 126.835,31.8485 127.5,35.5 Z"/></g>
<g><path style="opacity:1" fill="#e6a61b" d="M 121.5,14.5 C 122.833,14.5 124.167,14.5 125.5,14.5C 125.5,20.8333 125.5,27.1667 125.5,33.5C 124.167,33.5 122.833,33.5 121.5,33.5C 121.5,27.1667 121.5,20.8333 121.5,14.5 Z"/></g>
<g><path style="opacity:1" fill="#e6a61b" d="M 122.5,5.5 C 124.983,5.72998 125.483,6.39665 124,7.5C 122.97,7.16389 122.47,6.49722 122.5,5.5 Z"/></g>
<g><path style="opacity:1" fill="#402013" d="M 127.5,35.5 C 128.867,37.0927 128.534,38.4261 126.5,39.5C 125.186,44.6523 125.186,49.6523 126.5,54.5C 126.204,56.403 125.537,58.0697 124.5,59.5C 124.83,53.1318 124.496,46.7985 123.5,40.5C 122.501,53.1492 122.168,65.8158 122.5,78.5C 121.833,78.5 121.5,78.1667 121.5,77.5C 122.118,64.2523 121.452,51.2523 119.5,38.5C 122.028,37.0652 124.695,36.0652 127.5,35.5 Z"/></g>
<g><path style="opacity:1" fill="#3a2e16" d="M 124.5,59.5 C 124.666,66.8409 124.5,74.1742 124,81.5C 122.961,80.7562 122.461,79.7562 122.5,78.5C 122.168,65.8158 122.501,53.1492 123.5,40.5C 124.496,46.7985 124.83,53.1318 124.5,59.5 Z"/></g>
<g><path style="opacity:1" fill="#060403" d="M 82.5,80.5 C 82.3284,81.4916 82.6618,82.1583 83.5,82.5C 83.8923,84.1789 84.3923,85.8455 85,87.5C 85.6667,86.8333 86.3333,86.1667 87,85.5C 88.2515,87.0009 89.2515,88.6675 90,90.5C 91.4783,99.3022 93.4783,107.969 96,116.5C 98.5594,119.349 101.726,120.183 105.5,119C 107.54,114.393 108.373,109.56 108,104.5C 105.439,108.621 101.772,111.287 97,112.5C 96.6554,110.799 97.3221,109.466 99,108.5C 99.3333,104.5 99.6667,100.5 100,96.5C 101.471,93.8992 102.637,91.2325 103.5,88.5C 101.825,82.2486 101.325,75.9152 102,69.5C 102.881,66.115 105.048,64.4483 108.5,64.5C 108.666,60.4862 108.499,56.4862 108,52.5C 104.497,49.3746 104.664,46.5413 108.5,44C 110.81,43.5034 113.143,43.3367 115.5,43.5C 115.441,51.9185 116.274,60.2518 118,68.5C 118.505,71.865 119.672,74.865 121.5,77.5C 121.5,78.1667 121.833,78.5 122.5,78.5C 122.461,79.7562 122.961,80.7562 124,81.5C 124.5,74.1742 124.666,66.8409 124.5,59.5C 125.537,58.0697 126.204,56.403 126.5,54.5C 126.548,51.6872 127.215,49.0205 128.5,46.5C 129.868,45.4063 131.035,45.7397 132,47.5C 131.78,54.1552 131.78,60.8219 132,67.5C 134.036,72.4761 135.202,77.6427 135.5,83C 135.742,89.3478 133.409,94.5144 128.5,98.5C 131.993,108.078 132.327,117.744 129.5,127.5C 131.477,128.149 133.31,128.149 135,127.5C 136.395,127.78 137.562,128.447 138.5,129.5C 137.418,129.749 136.085,129.915 134.5,130C 133.833,131 133.167,132 132.5,133C 130.22,133.233 128.22,134.066 126.5,135.5C 126.977,136.478 127.643,137.311 128.5,138C 133.537,137.875 137.204,140.041 139.5,144.5C 139.167,144.833 138.833,145.167 138.5,145.5C 137.5,144.833 136.5,144.167 135.5,143.5C 134.452,144.383 133.285,145.05 132,145.5C 129.867,143.546 127.367,142.213 124.5,141.5C 123.816,145.883 123.483,150.217 123.5,154.5C 121.457,152.491 119.457,150.491 117.5,148.5C 118.228,146.845 118.395,145.179 118,143.5C 112.498,147.446 106.331,149.612 99.5,150C 102.206,152.371 104.539,155.037 106.5,158C 109.17,158.543 111.67,158.043 114,156.5C 116.413,157.024 118.58,158.024 120.5,159.5C 118.004,160.58 115.67,161.914 113.5,163.5C 111.657,162.061 109.99,162.228 108.5,164C 111.799,165.965 114.465,168.632 116.5,172C 113.937,171.896 111.271,171.896 108.5,172C 107.663,170.989 107.33,169.822 107.5,168.5C 106.448,168.351 105.448,168.517 104.5,169C 107.461,172.763 106.461,175.096 101.5,176C 100.929,177.205 100.262,178.372 99.5,179.5C 99.1667,178.667 98.8333,177.833 98.5,177C 99.2497,173.837 99.9164,170.67 100.5,167.5C 96.5204,169.43 92.3538,171.096 88,172.5C 87.3333,171.167 87.3333,169.833 88,168.5C 90.7236,165.693 93.8903,163.526 97.5,162C 92.9489,158.566 88.2822,155.399 83.5,152.5C 83.5,151.833 83.1667,151.5 82.5,151.5C 82.8808,149.058 82.2141,148.391 80.5,149.5C 72.1291,144.298 66.1291,137.131 62.5,128C 64.3665,125.784 65.1998,123.284 65,120.5C 61.4399,127.542 56.1065,129.209 49,125.5C 48.5017,128.817 48.335,132.15 48.5,135.5C 52.9859,134.862 56.6525,136.196 59.5,139.5C 56.1342,139.76 52.6342,140.427 49,141.5C 49.1746,145.857 49.508,150.191 50,154.5C 49.6258,153.584 49.1258,152.75 48.5,152C 44.1908,151.538 42.8574,149.371 44.5,145.5C 42.8769,141.942 40.2103,140.776 36.5,142C 34.362,145.104 32.0287,145.27 29.5,142.5C 28.2322,143.428 26.8989,143.595 25.5,143C 28.3964,139.196 32.0631,137.696 36.5,138.5C 38.0293,138.471 39.196,137.804 40,136.5C 39.0966,128.584 37.5966,120.751 35.5,113C 38.2321,112.587 40.8987,111.92 43.5,111C 33.6805,108.528 26.8472,102.695 23,93.5C 20.6178,83.3045 23.1178,74.6379 30.5,67.5C 31.6609,63.2047 31.8275,58.8713 31,54.5C 30.1314,51.6059 28.2981,50.4392 25.5,51C 26.5536,52.3876 26.7203,53.8876 26,55.5C 22.3811,51.8845 18.2144,49.0512 13.5,47C 18.5324,45.4018 23.0324,42.9018 27,39.5C 27.2649,41.1626 26.7649,42.6626 25.5,44C 33.051,45.2174 37.7177,49.5507 39.5,57C 42.8333,57.3333 46.1667,57.6667 49.5,58C 50.6667,59.1667 51.8333,60.3333 53,61.5C 56.4748,75.192 51.3081,80.5253 37.5,77.5C 37.1667,77.8333 36.8333,78.1667 36.5,78.5C 38.8977,85.0878 43.5644,87.2545 50.5,85C 54.6515,83.8603 55.9849,81.3603 54.5,77.5C 55.723,76.3861 57.0563,76.2195 58.5,77C 61.2713,80.654 62.6046,80.154 62.5,75.5C 65.6136,76.0913 68.1136,77.758 70,80.5C 70.7393,78.7795 71.5726,77.1128 72.5,75.5C 75.5663,77.2932 77.3996,79.9599 78,83.5C 79,82.1667 80,80.8333 81,79.5C 81.3826,80.056 81.8826,80.3893 82.5,80.5 Z"/></g>
<g><path style="opacity:1" fill="#dad9d7" d="M 110.5,46.5 C 111.649,46.7911 112.316,47.6244 112.5,49C 112.333,49.8333 112.167,50.6667 112,51.5C 110.731,50.0953 110.231,48.4286 110.5,46.5 Z"/></g>
<g><path style="opacity:1" fill="#f3f3f2" d="M 41.5,65.5 C 43.9775,65.0508 45.9775,65.7175 47.5,67.5C 44.2497,71.5568 42.2497,70.8902 41.5,65.5 Z"/></g>
<g><path style="opacity:1" fill="#f0efef" d="M 109.5,68.5 C 110.705,71.2341 112.205,73.9007 114,76.5C 116.222,80.9516 115.556,84.9516 112,88.5C 111.125,87.1268 110.625,85.6268 110.5,84C 111.612,81.924 112.112,79.7573 112,77.5C 110.89,75.9632 109.39,75.2965 107.5,75.5C 107.394,72.9214 108.061,70.588 109.5,68.5 Z"/></g>
<g><path style="opacity:1" fill="#fdfdfd" d="M -0.5,116.5 C 6.47657,157.81 30.4766,182.81 71.5,191.5C 47.5,191.5 23.5,191.5 -0.5,191.5C -0.5,166.5 -0.5,141.5 -0.5,116.5 Z"/></g>
<g><path style="opacity:1" fill="#fdfcfc" d="M 165.5,118.5 C 165.5,142.833 165.5,167.167 165.5,191.5C 140.833,191.5 116.167,191.5 91.5,191.5C 132.7,183.966 157.367,159.633 165.5,118.5 Z"/></g>
</svg>

<svg xmlns="http://www.w3.org/2000/svg" width="166" height="192" style="shape-rendering:geometricPrecision;text-rendering:geometricPrecision;image-rendering:optimizeQuality;fill-rule:evenodd;clip-rule:evenodd"><path style="opacity:1" fill="#140d0b" d="M-.5-.5h166v119c-8.133 41.133-32.8 65.466-74 73h-20c-41.023-8.69-65.023-33.69-72-75V-.5z"/><path style="opacity:1" fill="#fcfcfc" d="M82.5 80.5c-.617-.11-1.117-.444-1.5-1l-3 4c-.6-3.54-2.434-6.207-5.5-8a48.175 48.175 0 0 0-2.5 5c-1.886-2.742-4.386-4.409-7.5-5 .105 4.654-1.229 5.154-4 1.5-1.444-.78-2.777-.614-4 .5 1.485 3.86.151 6.36-4 7.5-6.936 2.254-11.602.088-14-6.5l1-1c13.808 3.025 18.975-2.308 15.5-16L49.5 58l-10-1c-1.782-7.45-6.449-11.783-14-13 1.265-1.337 1.765-2.837 1.5-4.5-3.968 3.402-8.468 5.902-13.5 7.5A40.245 40.245 0 0 1 26 55.5c.72-1.612.554-3.112-.5-4.5 2.798-.56 4.631.606 5.5 3.5.828 4.371.66 8.705-.5 13-7.382 7.138-9.882 15.805-7.5 26 3.847 9.195 10.68 15.028 20.5 17.5a43.39 43.39 0 0 1-8 2 158.864 158.864 0 0 1 4.5 23.5c-.804 1.304-1.97 1.971-3.5 2-4.437-.804-8.104.696-11 4.5 1.399.595 2.732.428 4-.5 2.529 2.77 4.862 2.604 7-.5 3.71-1.224 6.377-.058 8 3.5-1.643 3.871-.31 6.038 4 6.5a9.465 9.465 0 0 1 1.5 2.5 177.062 177.062 0 0 1-1-13c3.634-1.073 7.134-1.74 10.5-2-2.847-3.304-6.514-4.638-11-4-.165-3.35.002-6.683.5-10 7.106 3.709 12.44 2.042 16-5 .2 2.784-.633 5.284-2.5 7.5 3.63 9.131 9.63 16.298 18 21.5 1.714-1.109 2.38-.442 2 2v36c-33.491-1.331-57.658-16.998-72.5-47a97.745 97.745 0 0 1-6-25c-.5-37.332-.667-74.665-.5-112h79v77z"/><path style="opacity:1" fill="#d63023" d="M83.5 152.5a166.781 166.781 0 0 1 14 9.5 28.648 28.648 0 0 0-9.5 6.5c-.667 1.333-.667 2.667 0 4a96.415 96.415 0 0 0 12.5-5 191.62 191.62 0 0 1-2 9.5l1 2.5a26.585 26.585 0 0 0 2-3.5c4.961-.904 5.961-3.237 3-7a4.934 4.934 0 0 1 3-.5c-.17 1.322.163 2.489 1 3.5 2.771-.104 5.437-.104 8 0-2.035-3.368-4.701-6.035-8-8 1.49-1.772 3.157-1.939 5-.5a36.16 36.16 0 0 1 7-4 16.152 16.152 0 0 0-6.5-3c-2.33 1.543-4.83 2.043-7.5 1.5a39.806 39.806 0 0 0-7-8c6.831-.388 12.998-2.554 18.5-6.5.395 1.679.228 3.345-.5 5a499.122 499.122 0 0 0 6 6 82.098 82.098 0 0 1 1-13c2.867.713 5.367 2.046 7.5 4a11.068 11.068 0 0 0 3.5-2l3 2 1-1c-2.296-4.459-5.963-6.625-11-6.5a7.248 7.248 0 0 1-2-2.5c1.72-1.434 3.72-2.267 6-2.5l2-3c1.585-.085 2.918-.251 4-.5a6.201 6.201 0 0 0-3.5-2c-1.69.649-3.523.649-5.5 0 2.827-9.756 2.493-19.422-1-29 4.909-3.986 7.242-9.152 7-15.5a47.637 47.637 0 0 0-3.5-15.5c-.22-6.678-.22-13.345 0-20-.965-1.76-2.132-2.094-3.5-1a18.073 18.073 0 0 0-2 8c-1.314-4.848-1.314-9.848 0-15 2.034-1.074 2.367-2.407 1-4-.665-3.651-.999-7.485-1-11.5a56.266 56.266 0 0 1 2-13.5c-1.011-1.847-2.011-3.68-3-5.5-1.333-.667-2.667-.667-4 0a18.098 18.098 0 0 0-2 5.5 100.693 100.693 0 0 1 0 28c1.952 12.752 2.618 25.752 2 39-1.828-2.635-2.995-5.635-3.5-9a117.685 117.685 0 0 1-2.5-25 24.939 24.939 0 0 0-7 .5c-3.836 2.541-4.003 5.375-.5 8.5.499 3.986.666 7.986.5 12-3.452-.052-5.619 1.615-6.5 5a51.844 51.844 0 0 0 1.5 19 41.79 41.79 0 0 1-3.5 8l-1 12c-1.678.966-2.345 2.299-2 4 4.772-1.213 8.439-3.879 11-8 .373 5.06-.46 9.893-2.5 14.5-3.774 1.183-6.94.349-9.5-2.5a220.432 220.432 0 0 1-6-26 18.941 18.941 0 0 0-3-5l-2 2a42.618 42.618 0 0 1-1.5-5v-79h78c.167 38.002 0 76.001-.5 114-6.246 38.913-28.746 62.08-67.5 69.5-3.317.498-6.65.665-10 .5v-35z"/><path style="opacity:1" fill="#1f1710" d="M127.5 35.5a26.867 26.867 0 0 0-8 3 100.693 100.693 0 0 0 0-28 18.098 18.098 0 0 1 2-5.5c1.333-.667 2.667-.667 4 0 .989 1.82 1.989 3.653 3 5.5a56.266 56.266 0 0 0-2 13.5c.001 4.015.335 7.849 1 11.5z"/><path style="opacity:1" fill="#e6a61b" d="M121.5 14.5h4v19h-4v-19zM122.5 5.5c2.483.23 2.983.897 1.5 2-1.03-.336-1.53-1.003-1.5-2z"/><path style="opacity:1" fill="#402013" d="M127.5 35.5c1.367 1.593 1.034 2.926-1 4-1.314 5.152-1.314 10.152 0 15-.296 1.903-.963 3.57-2 5a91.124 91.124 0 0 0-1-19 362.008 362.008 0 0 0-1 38c-.667 0-1-.333-1-1 .618-13.248-.048-26.248-2-39a26.867 26.867 0 0 1 8-3z"/><path style="opacity:1" fill="#3a2e16" d="M124.5 59.5c.166 7.34 0 14.674-.5 22-1.039-.744-1.539-1.744-1.5-3a362.008 362.008 0 0 1 1-38 91.124 91.124 0 0 1 1 19z"/><path style="opacity:1" fill="#060403" d="M82.5 80.5c-.172.992.162 1.658 1 2a42.618 42.618 0 0 0 1.5 5l2-2a18.941 18.941 0 0 1 3 5 220.432 220.432 0 0 0 6 26c2.56 2.849 5.726 3.683 9.5 2.5 2.04-4.607 2.873-9.44 2.5-14.5-2.561 4.121-6.228 6.787-11 8-.345-1.701.322-3.034 2-4l1-12a41.79 41.79 0 0 0 3.5-8 51.844 51.844 0 0 1-1.5-19c.881-3.385 3.048-5.052 6.5-5a72.368 72.368 0 0 0-.5-12c-3.503-3.125-3.336-5.959.5-8.5a24.939 24.939 0 0 1 7-.5 117.685 117.685 0 0 0 2.5 25c.505 3.365 1.672 6.365 3.5 9 0 .667.333 1 1 1-.039 1.256.461 2.256 1.5 3 .5-7.326.666-14.66.5-22 1.037-1.43 1.704-3.097 2-5 .048-2.813.715-5.48 2-8 1.368-1.094 2.535-.76 3.5 1-.22 6.655-.22 13.322 0 20a47.637 47.637 0 0 1 3.5 15.5c.242 6.348-2.091 11.514-7 15.5 3.493 9.578 3.827 19.244 1 29 1.977.649 3.81.649 5.5 0a6.201 6.201 0 0 1 3.5 2c-1.082.249-2.415.415-4 .5l-2 3c-2.28.233-4.28 1.066-6 2.5a7.248 7.248 0 0 0 2 2.5c5.037-.125 8.704 2.041 11 6.5l-1 1-3-2a11.068 11.068 0 0 1-3.5 2c-2.133-1.954-4.633-3.287-7.5-4a82.098 82.098 0 0 0-1 13 499.122 499.122 0 0 1-6-6c.728-1.655.895-3.321.5-5-5.502 3.946-11.669 6.112-18.5 6.5a39.806 39.806 0 0 1 7 8c2.67.543 5.17.043 7.5-1.5a16.152 16.152 0 0 1 6.5 3 36.16 36.16 0 0 0-7 4c-1.843-1.439-3.51-1.272-5 .5 3.299 1.965 5.965 4.632 8 8a102.564 102.564 0 0 0-8 0c-.837-1.011-1.17-2.178-1-3.5a4.934 4.934 0 0 0-3 .5c2.961 3.763 1.961 6.096-3 7a26.585 26.585 0 0 1-2 3.5l-1-2.5a191.62 191.62 0 0 0 2-9.5 96.415 96.415 0 0 1-12.5 5c-.667-1.333-.667-2.667 0-4a28.648 28.648 0 0 1 9.5-6.5 166.781 166.781 0 0 0-14-9.5c0-.667-.333-1-1-1 .38-2.442-.286-3.109-2-2-8.37-5.202-14.37-12.369-18-21.5 1.867-2.216 2.7-4.716 2.5-7.5-3.56 7.042-8.894 8.709-16 5a50.442 50.442 0 0 0-.5 10c4.486-.638 8.153.696 11 4-3.366.26-6.866.927-10.5 2 .175 4.357.508 8.691 1 13a9.465 9.465 0 0 0-1.5-2.5c-4.31-.462-5.643-2.629-4-6.5-1.623-3.558-4.29-4.724-8-3.5-2.138 3.104-4.471 3.27-7 .5-1.268.928-2.601 1.095-4 .5 2.896-3.804 6.563-5.304 11-4.5 1.53-.029 2.696-.696 3.5-2a158.864 158.864 0 0 0-4.5-23.5 43.39 43.39 0 0 0 8-2c-9.82-2.472-16.653-8.305-20.5-17.5-2.382-10.195.118-18.862 7.5-26a28.725 28.725 0 0 0 .5-13c-.869-2.894-2.702-4.06-5.5-3.5 1.054 1.388 1.22 2.888.5 4.5A40.245 40.245 0 0 0 13.5 47c5.032-1.598 9.532-4.098 13.5-7.5.265 1.663-.235 3.163-1.5 4.5 7.551 1.217 12.218 5.55 14 13l10 1 3.5 3.5c3.475 13.692-1.692 19.025-15.5 16l-1 1c2.398 6.588 7.064 8.754 14 6.5 4.151-1.14 5.485-3.64 4-7.5 1.223-1.114 2.556-1.28 4-.5 2.771 3.654 4.105 3.154 4-1.5 3.114.591 5.614 2.258 7.5 5a48.175 48.175 0 0 1 2.5-5c3.066 1.793 4.9 4.46 5.5 8l3-4c.383.556.883.89 1.5 1z"/><path style="opacity:1" fill="#dad9d7" d="M110.5 46.5c1.149.291 1.816 1.124 2 2.5l-.5 2.5c-1.269-1.405-1.769-3.071-1.5-5z"/><path style="opacity:1" fill="#f3f3f2" d="M41.5 65.5c2.477-.45 4.477.218 6 2-3.25 4.057-5.25 3.39-6-2z"/><path style="opacity:1" fill="#f0efef" d="M109.5 68.5a48.492 48.492 0 0 0 4.5 8c2.222 4.452 1.556 8.452-2 12a9.622 9.622 0 0 1-1.5-4.5c1.112-2.076 1.612-4.243 1.5-6.5-1.11-1.537-2.61-2.204-4.5-2-.106-2.579.561-4.912 2-7z"/><path style="opacity:1" fill="#fdfdfd" d="M-.5 116.5c6.977 41.31 30.977 66.31 72 75h-72v-75z"/><path style="opacity:1" fill="#fdfcfc" d="M165.5 118.5v73h-74c41.2-7.534 65.867-31.867 74-73z"/></svg>
